assets/icons/solid/arrow-down-up-lock.svg

<svg xmlns="http://www.w3.org/2000/svg" viewBox="0 0 640 512"><!--! Font Awesome Free 6.7.2 by @fontawesome - https://fontawesome.com License - https://fontawesome.com/license/free (Icons: CC BY 4.0, Fonts: SIL OFL 1.1, Code: MIT License) Copyright 2024 Fonticons, Inc. --><path d="M150.6 502.6l96-96c12.5-12.5 12.5-32.8 0-45.3s-32.8-12.5-45.3 0L160 402.7 160 288l256 0 0-16c0-17.2 3.9-33.5 10.8-48L352 224l0-114.7 41.4 41.4c12.5 12.5 32.8 12.5 45.3 0s12.5-32.8 0-45.3l-96-96c-6-6-14.1-9.4-22.6-9.4s-16.6 3.4-22.6 9.4l-96 96c-12.5 12.5-12.5 32.8 0 45.3s32.8 12.5 45.3 0L288 109.3 288 224l-128 0-64 0-64 0c-17.7 0-32 14.3-32 32s14.3 32 32 32l64 0 0 114.7L54.6 361.4c-12.5-12.5-32.8-12.5-45.3 0s-12.5 32.8 0 45.3l96 96c12.5 12.5 32.8 12.5 45.3 0zM160 192l0-128c0-17.7-14.3-32-32-32s-32 14.3-32 32l0 128 64 0zM288 320l0 128c0 17.7 14.3 32 32 32s32-14.3 32-32l0-128-64 0zm240-80c17.7 0 32 14.3 32 32l0 48-64 0 0-48c0-17.7 14.3-32 32-32zm-80 32l0 48c-17.7 0-32 14.3-32 32l0 128c0 17.7 14.3 32 32 32l160 0c17.7 0 32-14.3 32-32l0-128c0-17.7-14.3-32-32-32l0-48c0-44.2-35.8-80-80-80s-80 35.8-80 80z"/></svg>

<svg xmlns="http://www.w3.org/2000/svg" viewBox="0 0 640 512"><!--! Font Awesome Pro 6.5.1 by @fontawesome - https://fontawesome.com License - https://fontawesome.com/license (Commercial License) Copyright 2023 Fonticons, Inc. --><path d="M150.6 502.6l96-96c12.5-12.5 12.5-32.8 0-45.3s-32.8-12.5-45.3 0L160 402.7V288H416V272c0-17.2 3.9-33.5 10.8-48H352V109.3l41.4 41.4c12.5 12.5 32.8 12.5 45.3 0s12.5-32.8 0-45.3l-96-96c-6-6-14.1-9.4-22.6-9.4s-16.6 3.4-22.6 9.4l-96 96c-12.5 12.5-12.5 32.8 0 45.3s32.8 12.5 45.3 0L288 109.3V224l-128 0H96l-64 0c-17.7 0-32 14.3-32 32s14.3 32 32 32H96V402.7L54.6 361.4c-12.5-12.5-32.8-12.5-45.3 0s-12.5 32.8 0 45.3l96 96c12.5 12.5 32.8 12.5 45.3 0zM160 192V64c0-17.7-14.3-32-32-32s-32 14.3-32 32V192h64zM288 320V448c0 17.7 14.3 32 32 32s32-14.3 32-32V320H288zm240-80c17.7 0 32 14.3 32 32v48H496V272c0-17.7 14.3-32 32-32zm-80 32v48c-17.7 0-32 14.3-32 32V480c0 17.7 14.3 32 32 32H608c17.7 0 32-14.3 32-32V352c0-17.7-14.3-32-32-32V272c0-44.2-35.8-80-80-80s-80 35.8-80 80z"/></svg>
